X: 39137
T: Sweet-toothed Baker, The
R: jig
M: 6/8
K: Dmajor
DEF {A}FED|ACD EDC-|C{E}CD E{G}EF|G{B}GF GFA-|
ADE FED|A,DE GFD|A,CD EFG|AcA GFD-|
DEF {A}FED|ACD EDC-|CA,B, E{G}EF|GBG FGA-|
ADE FED|A,DE GFd-|dCD EA,G|AcA GFD-|
DcB cde|{g}ecA cde|fef def|gaf gec-|
cEA cde|fge fdB|FBd fef|GAd fef|
Ace agf|ecA GFG|AAD BBD|ccD cde|
ffB ggc|aaB abc'|d'c'a c'af|gfg afd|

